X:1
T:The Bonny Lass of Fyvie
M:C
L:1/8
Q:80
C:arr. Russ Spaulding
S:March
K:HP
A | \
{Gdc}d2{g}de{Gdc}d3A | \
{Gdc}d2{g}de{Gdc}d4 | \
{g}e2{g}fg{ag}a2gf |
{gef}e2A2{GAG}A2ag | \
{fg}f3/2e/2{g}fg{ag}a3A | \
{Gdc}d3/2e/2{g}dB{g}G3{d}B |
{G}A2{Gdc}d2{g}e3/2d/2{g}cB | \
{g}A2{Gdc}d2{gdG}d3|]
